X:1
T:Title
%%score { ( 1 3 ) | ( 2 4 ) }
L:1/8
M:4/4
K:C
V:1 treble nm="Grand Piano"
V:3 treble 
V:2 bass 
V:4 bass 
V:1
 z4 z2[Q:1/4=100] [CE]>[DF] | [_E^F]2 [=EG]2- [EG][EG] [Ed]>[Ec] | [Fc]2 [FB]4 z2 | %3
 [DB]2 [DB]c BD [^FB]>[FA] | [B,G]6 [CE]>[DF] | [_E^F]2 [=EG]2- [EG][EG] [EA]>[CE_B] | %6
 [CG_B]2 [CFA]4 z2 | [C^FA]2 [CFA][EFA] [DFB]3 [Fc] |[M:3/4] d6 |[M:1/4] e>B | %10
[M:4/4] [Ed]2 [Ec]2- [Ec]E [_EB]>[EA] | [EA]2 [EG]6 | .[B,FG]2 [B,FG][C^FA] [D=FB][EGc][FBd][_Be] | %13
 [Bf]6 e>B | [Ed]2 [Ec]2- [Ec]E [FG]>[Gc] | c2 A4 z2 | z4 [^Fe]4 |[M:3/4] [Ec]6 |] %18
V:2
 z4 z2 [C,G,]>[C,G,] | [C,A,]2 [C,G,]2- [C,G,][C,G,] [C,G,]>[C,G,] | [D,G,]2 [D,G,]4 z2 | %3
 [G,,G,]2 [B,,G,][D,^F,D] [G,D][G,B,] [D,C]>[D,C] | [G,,G,]6 [C,G,]>[C,G,] | %5
 [C,A,]2 [C,_B,]2- [C,B,][C,A,] [C,G,]>C, | F,2 F,4 z2 | D,2 D,D, D,3 [D,A,] |[M:3/4] [G,,G,B,F]6 | %9
[M:1/4][K:treble] [G,B,F]>[G,E] |[M:4/4][K:bass] [C,G,]2 [C,G,]2- [C,G,][C,G,] [C,^F,]>[C,F,] | %11
 [C,G,]2 z2 G,A,B,C | z A,D,D, G,G,G,[K:treble][G,^C] | [G,D]6 [G,B,F]>[G,F] | %14
 [C,G,]2 [C,G,]2- [C,G,][C,C] [D,B,]>[E,_B,] | [F,A,F]2 [F,CF]4 z2 | %16
 [G,CE]2 [A,^CG][A,CG] =C2 z [G,B,F] |[M:3/4][K:bass] [C,C]6 |] %18
V:3
 x8 | x8 | x8 | x8 | x8 | x8 | x8 | x8 |[M:3/4] x6 |[M:1/4] x2 |[M:4/4] x8 | z2 G,2 z4 | x8 | x8 | %14
 x8 | x8 | G2 ef z2 A,d |[M:3/4] x6 |] %18
V:4
 x8 | x8 | x8 | x8 | x8 | x8 | x8 | x8 |[M:3/4] x6 |[M:1/4][K:treble] x2 |[M:4/4][K:bass] x8 | %11
 z2 C,6 | D,2 z2 z4[K:treble] | x8 | x8 | x8 | z4 D,4 |[M:3/4][K:bass] x6 |] %18

